X:260
T:After the Fire
R:pipe reel
C:Brenda Stubbert, SOCAN
Q:333
L:1/8
M:6/8
K:Ador
B|eA A/A/A Bede|B2 eA BAAB|dG G/G/G B2 AB|dgfa gedB|!
eA A/A/A Bede|B2 eA BAAB|dG G/G/G B2 AB|gedB A2 A:|!
|:b|ae e/e/e gfed|eAAB c2 BA|BG G/G/G DGBd|1egfa gedb|!
ae e/e/e gfed|eAAB c2 BA|BG G/G/G DGBd|gedB A2 A:|!
[2egfa gedg|eA A/A/A Bede|B2 eA BAAB|dG G/G/G B2 AB|gedB A2 A:|!


